X:98
T:McCahill's Reel
R:reel
H:Version 2 from Deirdre Shannon and Andy Dickson on Youtube
Z:id:hn-reel-98
M:C|
K:D
d2cd BdAF | EFGA BE~E2 | Ad~d2 fdAF | GBAG FDDA :|
|: B2^GB ADFA | B2^GB BcdA | B2^GB ADFA | GEFD EDB,D :|
|: e2^ge be^ge | Be^ge f^gaf | e2^ge be^ge | a2^ga faec :|
P:version 2
d2dA (3Bcd AF | EFGA BE~E2 | Ad~d2 fdAF | GBAG FDDA |
d2cd (3Bcd AF | EFGA BE~E2 | Ad~d2 fdAF | GBAG FDDA ||
|: B2GB ADFA | B2GB BcdA | BAGB ADFA | GEFD EFGA :|
|: e2 (3gfe bege | Bege fgaf | e2 (3gfe bege |1 affe fedf :|2 affe fedc ||
<end>
<start>
